Yaru++/apps/scalable/com.github.bartzaalberg.vala-tester.svg

<svg enable-background="new" height="256" viewBox="0 0 256 256" width="256" xmlns="http://www.w3.org/2000/svg" xmlns:xlink="http://www.w3.org/1999/xlink">
  <linearGradient id="linearGradient4358" gradientTransform="matrix(0 -1 1 0 -10.0054 585.9946)" gradientUnits="userSpaceOnUse" x1="88" x2="488" y1="88" y2="488">
    <stop offset="0" stop-opacity=".588235"/>
    <stop offset=".88" stop-opacity="0"/>
    <stop offset="1"/>
  </linearGradient>
  <filter id="filter4380" color-interpolation-filters="sRGB" height="1.088" width="1.106" x="-.05" y="-.04">
    <feGaussianBlur stdDeviation="8.48"/>
  </filter>
  <filter id="filter4346" color-interpolation-filters="sRGB" height="1.022" width="1.026" x="-.01" y="-.01">
    <feGaussianBlur stdDeviation="2.12"/>
  </filter>
  <clipPath id="clipPath6207">
    <path d="m-2.710958-7.731724h68.065804v50.296413h-68.065804z"/>
  </clipPath>
  <path d="m189.84323 74c-70.59344 0-78.18921 7.250835-77.84323 77.98706v146.01294 146.01294c-.34598 70.73623 7.24979 77.98706 77.84323 77.98706h196.31354c70.59344 0 76.00668-7.27384 77.84323-77.98706v-146.01294-146.01294c0-70.737067-7.24979-77.98706-77.84323-77.98706z" filter="url(#filter4346)" opacity=".1" transform="matrix(0 .5 -.5 0 276.82523 -15.328148)"/>
  <path d="m189.84323 74c-70.59344 0-78.18921 7.250835-77.84323 77.98706v146.01294 146.01294c-.34598 70.73623 7.24979 77.98706 77.84323 77.98706h196.31354c70.59344 0 77.84323-7.24999 77.84323-77.98706v-146.01294-146.01294c0-70.737067-7.24979-77.98706-77.84323-77.98706z" fill="url(#linearGradient4358)" filter="url(#filter4380)" opacity=".3" transform="matrix(0 .5 -.5 0 276.82523 -15.328148)"/>
  <path d="m241.83043 77.478254c0-36.098811-3.69016-39.983003-39.68984-39.806081h-74.31016-74.310154c-35.99969-.176922-39.68984 3.70727-39.68984 39.806081v100.387326c0 36.09881 3.68973 39.80608 39.68984 39.80608h74.310154 74.31016c36.00011 0 39.68984-3.70727 39.68984-39.80608z" opacity=".1"/>
  <path d="m239.82523 176.74484c0 35.29673-3.62542 39.09461-38.99353 38.92162h-73.00647-73.006464c-35.36812.17299-38.99353-3.62489-38.99353-38.92162v-98.156766c0-35.296716 3.625-38.921616 38.99353-38.921616h73.006464 73.00647c35.36853 0 38.99353 3.6249 38.99353 38.921616z" fill="#9141ac"/>
  <path d="m54.81817 39.667201c-35.36853 0-38.992187 3.623202-38.992187 38.919923v98.158206c0 .0882.0019.16224.002.25v-96.410156c-.000047-35.29672 3.625564-38.921879 38.994094-38.921879h73.005853 73.00586c35.28016 0 38.97394 3.621035 38.99219 38.671879v-1.74805c0-35.296721-3.62561-38.919923-38.99414-38.919923h-73.00586z" fill="#fff" opacity=".3"/>
  <path d="m53.648438 215.64844c.480053-.00029.677644.02236 1.169921.02148h73.007811 73.00586c.49228.00088.68987-.02177 1.16992-.02148-.42756-.00088-.73271.01971-1.16992.01758h-73.00586-73.007811c-.437213.00213-.742357-.01846-1.169921-.01758z" fill="#fff" opacity=".1"/>
  <path d="m15.520889 174.22376v2c0 35.29673 3.624067 39.09487 38.992187 38.92188h73.007814 73.00586c35.36811.17299 38.99414-3.62515 38.99414-38.92188v-2c0 35.29673-3.62603 39.09487-38.99414 38.92188h-73.00586-73.007814c-35.36812.17299-38.992187-3.62515-38.992187-38.92188z" opacity=".2"/>
  <path clip-path="url(#clipPath6207)" d="m13.422 0-1.744.078c-1.075.048-2.155.185-2.816.359-3.193.838-6.321 2.938-7.81 5.24-.795 1.233-1.06 2.087-1.052 3.407.007 1.232.308 2.018.973 2.542.431.339 1.572.703 2.203.703h.442l-.184-.518c-.252-.704-.243-3.069.015-4.164.3127183-1.2897592.9798326-2.466388 1.926-3.397.792-.788 1.987-1.593 2.66-1.791.295-.087.31-.054.31.643-.005 1.536.42 19.454.499 21.066l.082 1.692h2.457c2.211 0 2.466-.024 2.552-.242.356-.9 9.462-25.33 9.462-25.384 0-.037-.538-.05-1.195-.028l-1.195.04-3.603 10.467-3.604 10.466-.101-5.703c-.055-3.136-.14-7.902-.189-10.59zm50.238 22.822c-.907 0-1.324-.424-1.324-1.347 0-.515 1.466-7.823 2.48-12.36l.116-.521-2.506.037-2.506.038-.124.73-.124.729-.251-.563c-.394-.88-1.135-1.147-3.006-1.081-1.342.046-1.554.092-2.505.545-3.161 1.504-5.484 5.567-5.939 10.387-.135 1.44-.17 1.56-.62 2.108-.518.632-1.45 1.16-2.047 1.16-.206 0-.587-.088-.846-.196-.373-.156-.49-.299-.562-.687-.12-.635-.114-.663 2.129-11.13 1.05-4.898 1.897-8.922 1.882-8.942-.059-.081-4.948.649-5.039.752-.054.062-.858 3.685-1.786 8.052-.927 4.367-1.807 8.394-1.955 8.95-.526 1.976-1.404 3.158-2.45 3.298-1.183.16-1.712-.289-1.702-1.439.004-.363.569-3.308 1.256-6.545.688-3.236 1.25-5.955 1.25-6.04 0-.111-.723-.157-2.47-.157h-2.47l-.093.621c-.108.725-.216.776-.464.216-.294-.665-1.125-.975-2.612-.975-2.221 0-3.594.63-5.25 2.413-1.969 2.119-3.135 4.883-3.515 8.33-.536 4.86 2.102 7.722 6.007 6.516 1.045-.323 2.298-1.194 3.065-2.13l.531-.648.227.735c.312 1.005.626 1.441 1.344 1.862 1.227.72 3.404.54 4.991-.41.408-.244 1.063-.797 1.456-1.229l.714-.785.242.683c.63 1.775 2.45 2.533 4.813 2.006 1.307-.292 2.32-.88 3.387-1.964l.858-.873.261.59c.38753.854724 1.047679 1.556727 1.877 1.996.614.321.868.368 2.015.371 1.2.004 1.393-.034 2.266-.448.695-.329 1.23-.731 1.966-1.48.997-1.014 1.013-1.022 1.092-.652.468 2.177 2.29 3.1 4.82 2.442 1.213-.316 2.079-.85 3.023-1.865 0 0 1.47129-2.069403-1.902-1.1zm-33.146-12.289c.642 0 1.306.617 1.306 1.214 0 .751-1.665 8.237-1.988 8.935-.385.834-.93 1.403-1.671 1.743-.665.305-1.116.317-1.621.043-.857-.465-1.097-1.865-.738-4.31.412-2.805 1.331-5.074 2.63-6.496.755-.826 1.315-1.13 2.082-1.13zm27.245 0c.63 0 1.087.262 1.321.755.198.418.163.659-.686 4.641-.58 2.722-1.02 4.455-1.247 4.923-.691 1.42-2.216 2.187-3.242 1.63-.724-.395-.988-1.563-.804-3.548.412-4.424 2.617-8.401 4.658-8.401z" fill="#f6f5f4" opacity=".9" transform="matrix(2.75418770284 0 0 2.75418770284 37.82571759849 91.8698084134)"/>
</svg>

<?xml version="1.0" encoding="UTF-8" standalone="no"?>
<svg
   xmlns:dc="http://purl.org/dc/elements/1.1/"
   xmlns:cc="http://creativecommons.org/ns#"
   xmlns:rdf="http://www.w3.org/1999/02/22-rdf-syntax-ns#"
   xmlns:svg="http://www.w3.org/2000/svg"
   xmlns="http://www.w3.org/2000/svg"
   xmlns:xlink="http://www.w3.org/1999/xlink"
   xmlns:sodipodi="http://sodipodi.sourceforge.net/DTD/sodipodi-0.dtd"
   xmlns:inkscape="http://www.inkscape.org/namespaces/inkscape"
   style="enable-background:new"
   width="256"
   height="256"
   version="1.0"
   viewBox="0 0 256 256"
   id="svg154"
   sodipodi:docname="vala.svg"
   inkscape:version="0.92.4 (5da689c313, 2019-01-14)">
  <metadata
     id="metadata158">
    <rdf:RDF>
      <cc:Work
         rdf:about="">
        <dc:format>image/svg+xml</dc:format>
        <dc:type
           rdf:resource="http://purl.org/dc/dcmitype/StillImage" />
        <dc:title>
  Adwaita Icon Template
 </dc:title>
      </cc:Work>
    </rdf:RDF>
  </metadata>
  <sodipodi:namedview
     pagecolor="#ffffff"
     bordercolor="#666666"
     borderopacity="1"
     objecttolerance="10"
     gridtolerance="10"
     guidetolerance="10"
     inkscape:pageopacity="0"
     inkscape:pageshadow="2"
     inkscape:window-width="1920"
     inkscape:window-height="1016"
     id="namedview156"
     showgrid="false"
     inkscape:zoom="0.921875"
     inkscape:cx="128"
     inkscape:cy="128"
     inkscape:window-x="0"
     inkscape:window-y="27"
     inkscape:window-maximized="1"
     inkscape:current-layer="svg154" />
  <title
     id="title4162">
  Adwaita Icon Template
 </title>
  <defs
     id="defs70">
    <linearGradient
       id="linearGradient965"
       x1="48"
       x2="464"
       y1="44"
       y2="44"
       gradientUnits="userSpaceOnUse">
      <stop
         id="stop989"
         offset="0"
         style="stop-color:#77767b" />
      <stop
         id="stop991"
         offset=".05"
         style="stop-color:#c0bfbc" />
      <stop
         id="stop993"
         offset=".1"
         style="stop-color:#9a9996" />
      <stop
         id="stop995"
         offset=".9"
         style="stop-color:#9a9996" />
      <stop
         id="stop997"
         offset=".95"
         style="stop-color:#c0bfbc" />
      <stop
         id="stop999"
         offset="1"
         style="stop-color:#77767b" />
    </linearGradient>
    <radialGradient
       id="radialGradient1030"
       cx="64"
       cy="194.19"
       r="44"
       gradientTransform="matrix(-4.7273,7.9359e-7,-3.0301e-7,-1.6364,238.55,49.766)"
       gradientUnits="userSpaceOnUse">
      <stop
         id="stop1016"
         offset="0"
         style="stop-color:#fff" />
      <stop
         id="stop1018"
         offset="1"
         style="stop-color:#fff;stop-opacity:.094118" />
    </radialGradient>
    <linearGradient
       id="linearGradient1950"
       x1="70.347"
       x2="70.347"
       y1="245.4"
       y2="269.14"
       gradientUnits="userSpaceOnUse">
      <stop
         id="stop1944"
         offset="0"
         style="stop-color:#2d2839" />
      <stop
         id="stop1946"
         offset="1"
         style="stop-color:#282433" />
    </linearGradient>
    <linearGradient
       id="linearGradient4358"
       x1="88"
       x2="488"
       y1="88"
       y2="488"
       gradientTransform="rotate(-90,287.9946,298)"
       gradientUnits="userSpaceOnUse"
       xlink:href="#linearGradient4360" />
    <linearGradient
       id="linearGradient4360">
      <stop
         id="stop4362"
         offset="0"
         style="stop-color:#000000;stop-opacity:0.58823532" />
      <stop
         style="stop-color:#000000;stop-opacity:0"
         id="stop4364"
         offset=".88" />
      <stop
         id="stop4366"
         offset="1"
         style="stop-color:#000000" />
    </linearGradient>
    <filter
       style="color-interpolation-filters:sRGB"
       id="filter4380"
       width="1.106"
       height="1.088"
       x="-.05"
       y="-.04">
      <feGaussianBlur
         id="feGaussianBlur4382"
         stdDeviation="8.48" />
    </filter>
    <filter
       style="color-interpolation-filters:sRGB"
       id="filter4346"
       width="1.026"
       height="1.022"
       x="-.01"
       y="-.01">
      <feGaussianBlur
         id="feGaussianBlur4348"
         stdDeviation="2.12" />
    </filter>
    <linearGradient
       id="linearGradient1007">
      <stop
         style="stop-color:#2dc0af"
         id="stop1003"
         offset="0" />
      <stop
         style="stop-color:#61a1d2"
         id="stop1005"
         offset="1" />
    </linearGradient>
    <linearGradient
       id="linearGradient6809-3">
      <stop
         style="stop-color:#f6d123"
         id="stop6805"
         offset="0" />
      <stop
         style="stop-color:#2dc0af;stop-opacity:0.13779527"
         id="stop6807"
         offset="1" />
    </linearGradient>
    <linearGradient
       id="linearGradient6826">
      <stop
         style="stop-color:#50dbb5"
         id="stop6822"
         offset="0" />
      <stop
         style="stop-color:#4a86cf"
         id="stop6824"
         offset="1" />
    </linearGradient>
    <radialGradient
       id="radialGradient439"
       cx="184"
       cy="-179.602"
       r="225"
       fx="184"
       fy="-179.602"
       gradientTransform="matrix(0.25,0,0,0.1967778,-162.99495,200.7212)"
       gradientUnits="userSpaceOnUse"
       xlink:href="#linearGradient6826" />
    <radialGradient
       id="radialGradient441"
       cx="256"
       cy="267.602"
       r="225"
       fx="256"
       fy="267.602"
       gradientTransform="matrix(0.45333333,0,0,0.35682373,-215.04828,157.89251)"
       gradientUnits="userSpaceOnUse"
       xlink:href="#linearGradient6809-3" />
    <linearGradient
       id="linearGradient443"
       x1="230"
       x2="230"
       y1="204"
       y2="172"
       gradientTransform="matrix(0.25,0,0,0.25,-162.99495,202.37942)"
       gradientUnits="userSpaceOnUse"
       xlink:href="#linearGradient1007" />
    <linearGradient
       id="a">
      <stop
         id="stop2"
         offset="0"
         stop-color="#68676b" />
      <stop
         id="stop4"
         offset=".8"
         stop-color="#424048" />
      <stop
         id="stop6"
         offset="1"
         stop-color="#241f31" />
    </linearGradient>
    <radialGradient
       id="d"
       cx="279.422"
       cy="446.483"
       r="224"
       fx="279.422"
       fy="446.483"
       gradientTransform="matrix(1.34416 .0006 -.00062 1.38763 -121.22 -718.103)"
       gradientUnits="userSpaceOnUse"
       xlink:href="#a" />
    <linearGradient
       id="e"
       x1="43.844"
       x2="-60"
       y1="234"
       y2="234"
       gradientTransform="matrix(1.0015,0,0,0.99993,72.09,56.015)"
       gradientUnits="userSpaceOnUse"
       xlink:href="#b" />
    <linearGradient
       id="b">
      <stop
         id="stop11"
         offset="0"
         stop-color="#d5d3cf" />
      <stop
         id="stop13"
         offset=".038"
         stop-color="#e3e2df" />
      <stop
         id="stop15"
         offset=".077"
         stop-color="#c0bfbc" />
      <stop
         id="stop17"
         offset=".923"
         stop-color="#c0bfbc" />
      <stop
         id="stop19"
         offset=".962"
         stop-color="#e3e2df" />
      <stop
         id="stop21"
         offset="1"
         stop-color="#d5d3cf" />
    </linearGradient>
    <linearGradient
       id="linearGradient3919"
       x1="42"
       x2="54"
       y1="49"
       y2="49"
       gradientTransform="matrix(0.68426737,0,0,0.68426737,-51.579387,227.56429)"
       gradientUnits="userSpaceOnUse">
      <stop
         id="stop25"
         offset="0"
         style="stop-color:#464646" />
      <stop
         id="stop27"
         offset="1"
         style="stop-color:#464646;stop-opacity:0" />
    </linearGradient>
    <linearGradient
       id="linearGradient3831-3"
       x1="15"
       x2="15"
       y1="48"
       y2="8"
       gradientTransform="matrix(0.74912138,0,0,0.74912138,2.9232156,224.77708)"
       gradientUnits="userSpaceOnUse"
       spreadMethod="reflect"
       xlink:href="#linearGradient3825" />
    <linearGradient
       id="linearGradient3825">
      <stop
         id="stop30"
         offset="0"
         style="stop-color:#000000" />
      <stop
         id="stop32"
         offset=".6"
         style="stop-color:#000000" />
      <stop
         id="stop34"
         offset="1"
         style="stop-color:#000000;stop-opacity:0" />
    </linearGradient>
    <linearGradient
       id="linearGradient3862-3"
       x1="15"
       x2="15"
       y1="48"
       y2="8"
       gradientTransform="matrix(0,0.74912138,-0.74912138,0,72.966065,227.02444)"
       gradientUnits="userSpaceOnUse"
       spreadMethod="reflect"
       xlink:href="#linearGradient3825" />
    <linearGradient
       id="linearGradient3831-3-6"
       x1="15"
       x2="15"
       y1="48"
       y2="8"
       gradientTransform="matrix(0.7491214,0,0,0.7491214,-61.700945,221.92589)"
       gradientUnits="userSpaceOnUse"
       spreadMethod="reflect"
       xlink:href="#linearGradient3825" />
    <linearGradient
       id="linearGradient3862-3-5"
       x1="15"
       x2="15"
       y1="48"
       y2="8"
       gradientTransform="matrix(0,0.7491214,-0.7491214,0,8.3419061,224.17325)"
       gradientUnits="userSpaceOnUse"
       spreadMethod="reflect"
       xlink:href="#linearGradient3825" />
    <linearGradient
       id="linearGradient4009">
      <stop
         id="stop4011"
         offset="0"
         style="stop-color:#f57900" />
      <stop
         id="stop4013"
         offset="1"
         style="stop-color:#ffc286" />
    </linearGradient>
    <linearGradient
       id="linearGradient3928">
      <stop
         id="stop3930"
         offset="0"
         style="stop-color:#61635f" />
      <stop
         id="stop3932"
         offset="1"
         style="stop-color:#999b96" />
    </linearGradient>
    <linearGradient
       id="linearGradient3697">
      <stop
         id="stop3699"
         offset="0"
         style="stop-color:#73d216" />
      <stop
         id="stop3701"
         offset="1"
         style="stop-color:#adf06b" />
    </linearGradient>
    <radialGradient
       xlink:href="#linearGradient6826"
       gradientUnits="userSpaceOnUse"
       gradientTransform="matrix(0.25,0,0,0.1967778,-162.99495,200.7212)"
       fy="-179.602"
       fx="184"
       r="225"
       cy="-179.602"
       cx="184"
       id="radialGradient439-2" />
    <radialGradient
       xlink:href="#linearGradient6809-3"
       gradientUnits="userSpaceOnUse"
       gradientTransform="matrix(0.45333333,0,0,0.35682373,-215.04828,157.89251)"
       fy="267.602"
       fx="256"
       r="225"
       cy="267.602"
       cx="256"
       id="radialGradient441-9" />
    <filter
       filterUnits="objectBoundingBox"
       color-interpolation-filters="sRGB"
       y="-.03"
       x="-.04"
       height="1.067"
       width="1.083"
       id="c">
      <feOffset
         result="pf_100_offsetBlur"
         dy="4"
         id="feOffset26" />
      <feFlood
         flood-opacity=".4"
         id="feFlood28" />
      <feComposite
         result="pf_100_dropShadow"
         operator="in"
         in2="pf_100_offsetBlur"
         id="feComposite30" />
      <feBlend
         mode="normal"
         in2="pf_100_dropShadow"
         in="SourceGraphic"
         id="feBlend32" />
    </filter>
    <clipPath
       id="clipPath6207"
       clipPathUnits="userSpaceOnUse">
      <rect
         y="-7.7317243"
         x="-2.7109578"
         height="50.296413"
         width="68.065804"
         id="rect6209"
         style="opacity:0.98000004;fill:#695c89;fill-opacity:1;stroke:#aa0000;stroke-width:0;stroke-miterlimit:4;stroke-dasharray:none;stroke-opacity:1" />
    </clipPath>
  </defs>
  <path
     style="opacity:0.1;filter:url(#filter4346)"
     d="M 189.84323,74 C 119.24979,74 111.65402,81.250835 112,151.98706 V 298 444.01294 C 111.65402,514.74917 119.24979,522 189.84323,522 H 386.15677 C 456.75021,522 462.16345,514.72616 464,444.01294 V 298 151.98706 C 464,81.249993 456.75021,74 386.15677,74 Z"
     transform="matrix(0,0.5,-0.5,0,276.82523,-15.328148)"
     id="path72" />
  <path
     d="M 189.84323,74 C 119.24979,74 111.65402,81.250835 112,151.98706 V 298 444.01294 C 111.65402,514.74917 119.24979,522 189.84323,522 H 386.15677 C 456.75021,522 464,514.75001 464,444.01294 V 298 151.98706 C 464,81.249993 456.75021,74 386.15677,74 Z"
     transform="matrix(0,0.5,-0.5,0,276.82523,-15.328148)"
     style="opacity:0.3;fill:url(#linearGradient4358);filter:url(#filter4380)"
     id="path74" />
  <path
     style="opacity:0.1"
     d="m 241.83043,77.478254 c 0,-36.098811 -3.69016,-39.983003 -39.68984,-39.806081 H 127.83043 53.520276 c -35.99969,-0.176922 -39.68984,3.70727 -39.68984,39.806081 V 177.86558 c 0,36.09881 3.68973,39.80608 39.68984,39.80608 h 74.310154 74.31016 c 36.00011,0 39.68984,-3.70727 39.68984,-39.80608 z"
     id="path76" />
  <path
     style="fill:#9141ac;fill-opacity:1"
     d="m 239.82523,176.74484 c 0,35.29673 -3.62542,39.09461 -38.99353,38.92162 H 127.82523 54.818766 c -35.36812,0.17299 -38.99353,-3.62489 -38.99353,-38.92162 V 78.588074 c 0,-35.296716 3.625,-38.921616 38.99353,-38.921616 h 73.006464 73.00647 c 35.36853,0 38.99353,3.6249 38.99353,38.921616 z"
     id="path78" />
  <path
     style="opacity:0.3;fill:#ffffff"
     d="m 54.81817,39.667201 c -35.36853,0 -38.992187,3.623202 -38.992187,38.919923 v 98.158206 c 0,0.0882 0.0019,0.16224 0.002,0.25 V 80.585174 c -4.7e-5,-35.29672 3.625564,-38.921879 38.994094,-38.921879 h 73.005853 73.00586 c 35.28016,0 38.97394,3.621035 38.99219,38.671879 v -1.74805 c 0,-35.296721 -3.62561,-38.919923 -38.99414,-38.919923 h -73.00586 z"
     id="path80" />
  <path
     style="opacity:0.1;fill:#ffffff"
     d="M 53.648438 215.64844 C 54.128491 215.64815 54.326082 215.6708 54.818359 215.66992 L 127.82617 215.66992 L 200.83203 215.66992 C 201.32431 215.6708 201.5219 215.64815 202.00195 215.64844 C 201.57439 215.64756 201.26924 215.66815 200.83203 215.66602 L 127.82617 215.66602 L 54.818359 215.66602 C 54.381146 215.66815 54.076002 215.64756 53.648438 215.64844 z"
     id="path82" />
  <path
     style="opacity:0.2"
     d="m 15.520889,174.22376 v 2 c 0,35.29673 3.624067,39.09487 38.992187,38.92188 h 73.007814 73.00586 c 35.36811,0.17299 38.99414,-3.62515 38.99414,-38.92188 v -2 c 0,35.29673 -3.62603,39.09487 -38.99414,38.92188 H 127.52089 54.513076 c -35.36812,0.17299 -38.992187,-3.62515 -38.992187,-38.92188 z"
     id="path86" />
  <g
     style="enable-background:new"
     id="g1004"
     transform="matrix(1.0063765,0,0,1.0063765,-287.5524,85.884198)">
    <path
       sodipodi:nodetypes="ccccccsccccccccscsccccccccscccccccccccsccccccccccsscccscccsccccccccccccccccccccscccccccscccccs"
       clip-path="url(#clipPath6207)"
       id="path2-3"
       overflow="visible"
       d="M 13.422,0 11.678,0.078 C 10.603,0.126 9.523,0.263 8.862,0.437 5.669,1.275 2.541,3.375 1.052,5.677 0.257,6.91 -0.008,7.764 0,9.084 c 0.007,1.232 0.308,2.018 0.973,2.542 0.431,0.339 1.572,0.703 2.203,0.703 H 3.618 L 3.434,11.811 C 3.182,11.107 3.191,8.742 3.449,7.647 3.7617183,6.3572408 4.4288326,5.180612 5.375,4.25 6.167,3.462 7.362,2.657 8.035,2.459 8.33,2.372 8.345,2.405 8.345,3.102 8.34,4.638 8.765,22.556 8.844,24.168 l 0.082,1.692 h 2.457 c 2.211,0 2.466,-0.024 2.552,-0.242 0.356,-0.9 9.462,-25.33 9.462,-25.384 0,-0.037 -0.538,-0.05 -1.195,-0.028 L 21.007,0.246 17.404,10.713 13.8,21.179 13.699,15.476 C 13.644,12.34 13.559,7.574 13.51,4.886 Z M 63.66,22.822 c -0.907,0 -1.324,-0.424 -1.324,-1.347 0,-0.515 1.466,-7.823 2.48,-12.36 L 64.932,8.594 62.426,8.631 59.92,8.669 59.796,9.399 59.672,10.128 59.421,9.565 C 59.027,8.685 58.286,8.418 56.415,8.484 55.073,8.53 54.861,8.576 53.91,9.029 c -3.161,1.504 -5.484,5.567 -5.939,10.387 -0.135,1.44 -0.17,1.56 -0.62,2.108 -0.518,0.632 -1.45,1.16 -2.047,1.16 -0.206,0 -0.587,-0.088 -0.846,-0.196 -0.373,-0.156 -0.49,-0.299 -0.562,-0.687 -0.12,-0.635 -0.114,-0.663 2.129,-11.13 1.05,-4.898 1.897,-8.922 1.882,-8.942 -0.059,-0.081 -4.948,0.649 -5.039,0.752 -0.054,0.062 -0.858,3.685 -1.786,8.052 -0.927,4.367 -1.807,8.394 -1.955,8.95 -0.526,1.976 -1.404,3.158 -2.45,3.298 -1.183,0.16 -1.712,-0.289 -1.702,-1.439 0.004,-0.363 0.569,-3.308 1.256,-6.545 0.688,-3.236 1.25,-5.955 1.25,-6.04 0,-0.111 -0.723,-0.157 -2.47,-0.157 h -2.47 L 32.448,9.221 C 32.34,9.946 32.232,9.997 31.984,9.437 31.69,8.772 30.859,8.462 29.372,8.462 c -2.221,0 -3.594,0.63 -5.25,2.413 -1.969,2.119 -3.135,4.883 -3.515,8.33 -0.536,4.86 2.102,7.722 6.007,6.516 1.045,-0.323 2.298,-1.194 3.065,-2.13 l 0.531,-0.648 0.227,0.735 c 0.312,1.005 0.626,1.441 1.344,1.862 1.227,0.72 3.404,0.54 4.991,-0.41 0.408,-0.244 1.063,-0.797 1.456,-1.229 l 0.714,-0.785 0.242,0.683 c 0.63,1.775 2.45,2.533 4.813,2.006 1.307,-0.292 2.32,-0.88 3.387,-1.964 l 0.858,-0.873 0.261,0.59 c 0.38753,0.854724 1.047679,1.556727 1.877,1.996 0.614,0.321 0.868,0.368 2.015,0.371 1.2,0.004 1.393,-0.034 2.266,-0.448 0.695,-0.329 1.23,-0.731 1.966,-1.48 0.997,-1.014 1.013,-1.022 1.092,-0.652 0.468,2.177 2.29,3.1 4.82,2.442 1.213,-0.316 2.079,-0.85 3.023,-1.865 0,0 1.47129,-2.069403 -1.902,-1.1 z M 30.514,10.533 c 0.642,0 1.306,0.617 1.306,1.214 0,0.751 -1.665,8.237 -1.988,8.935 -0.385,0.834 -0.93,1.403 -1.671,1.743 -0.665,0.305 -1.116,0.317 -1.621,0.043 -0.857,-0.465 -1.097,-1.865 -0.738,-4.31 0.412,-2.805 1.331,-5.074 2.63,-6.496 0.755,-0.826 1.315,-1.13 2.082,-1.13 z m 27.245,0 c 0.63,0 1.087,0.262 1.321,0.755 0.198,0.418 0.163,0.659 -0.686,4.641 -0.58,2.722 -1.02,4.455 -1.247,4.923 -0.691,1.42 -2.216,2.187 -3.242,1.63 -0.724,-0.395 -0.988,-1.563 -0.804,-3.548 0.412,-4.424 2.617,-8.401 4.658,-8.401 z"
       style="color:#fbc02d;overflow:visible;opacity:0.9;isolation:auto;mix-blend-mode:normal;solid-color:#000000;solid-opacity:1;fill:#f6f5f4;fill-opacity:1;marker:none"
       transform="matrix(2.7367369,0,0,2.7367369,323.31649,5.9476848)"
       inkscape:connector-curvature="0" />
  </g>
</svg>
